www/src/components/thumbprint-www/featured/svg/checklist.svg

<svg width="100" height="100" viewBox="0 0 100 100" fill="none" xmlns="http://www.w3.org/2000/svg">
<rect width="100" height="100" fill="white"/>
<path d="M24.4458 81.8246C37.1709 82.9401 45.9194 78.4782 57.4516 75.6894C69.6465 72.6219 83.6971 75.8289 91.6504 65.5106C102.255 51.5671 85.6855 29.3968 69.779 23.5405C54.9331 18.1025 15.4322 27.863 7.3464 40.2728C1.24894 49.7544 8.67193 53.798 11.1904 62.7219C12.7811 68.8571 13.0462 80.7091 24.4458 81.8246Z" fill="#F4FAFC"/>
<path d="M28 27.4854V80.5146C28 81.2573 28.5809 82 29.4521 82H70.5479C71.2739 82 72 81.4058 72 80.5146V27.4854C72 26.7427 71.4191 26 70.5479 26H29.3069C28.5809 26 28 26.7427 28 27.4854Z" fill="#A982ED"/>
<path d="M69 30H32V78H69V30Z" fill="#FAFDFC"/>
<path d="M56.4309 25.8691H43.5849C40.5194 25.8691 37.8918 28.3931 37.8918 31.6595H62.124C62.124 28.5416 59.4964 25.8691 56.4309 25.8691Z" fill="#5968E2"/>
<path d="M49.862 18C47.6724 18 45.7747 19.9301 45.7747 22.1572V28.0961H53.9494V22.1572C53.9494 19.9301 52.1976 18 49.862 18ZM50.008 23.6419C49.1321 23.6419 48.5482 22.8996 48.5482 22.1572C48.5482 21.2664 49.2781 20.6725 50.008 20.6725C50.8838 20.6725 51.4678 21.4149 51.4678 22.1572C51.4678 23.0481 50.7379 23.6419 50.008 23.6419Z" fill="#5968E2"/>
<path d="M62.405 43H46.595C46.255 43 46 42.5714 46 42C46 41.4286 46.255 41 46.595 41H62.405C62.745 41 63 41.4286 63 42C63 42.5714 62.745 43 62.405 43Z" fill="#C7E5F2"/>
<path d="M62.405 70H46.595C46.255 70 46 69.5714 46 69C46 68.4286 46.255 68 46.595 68H62.405C62.745 68 63 68.4286 63 69C63 69.5714 62.745 70 62.405 70Z" fill="#C7E5F2"/>
<path d="M62.405 52H46.595C46.255 52 46 51.5714 46 51C46 50.4286 46.255 50 46.595 50H62.405C62.745 50 63 50.4286 63 51C63 51.5714 62.745 52 62.405 52Z" fill="#C7E5F2"/>
<path d="M40.913 63H39.087C37.913 63 37 61.6875 37 60C37 58.3125 37.913 57 39.087 57H40.913C42.087 57 43 58.3125 43 60C42.8696 61.6875 41.9565 63 40.913 63Z" fill="#C7E5F2"/>
<path d="M40.913 63H39.087C37.913 63 37 61.6875 37 60C37 58.3125 37.913 57 39.087 57H40.913C42.087 57 43 58.3125 43 60C42.8696 61.6875 41.9565 63 40.913 63Z" fill="#C7E5F2"/>
<path d="M40.913 63H39.087C37.913 63 37 61.6875 37 60C37 58.3125 37.913 57 39.087 57H40.913C42.087 57 43 58.3125 43 60C42.8696 61.6875 41.9565 63 40.913 63Z" fill="#C7E5F2"/>
<path d="M40.913 63H39.087C37.913 63 37 61.6875 37 60C37 58.3125 37.913 57 39.087 57H40.913C42.087 57 43 58.3125 43 60C42.8696 61.6875 41.9565 63 40.913 63Z" fill="#C7E5F2"/>
<path d="M40.913 63H39.087C37.913 63 37 61.6875 37 60C37 58.3125 37.913 57 39.087 57H40.913C42.087 57 43 58.3125 43 60C42.8696 61.6875 41.9565 63 40.913 63Z" fill="#C7E5F2"/>
<path d="M40.913 63H39.087C37.913 63 37 61.6875 37 60C37 58.3125 37.913 57 39.087 57H40.913C42.087 57 43 58.3125 43 60C42.8696 61.6875 41.9565 63 40.913 63Z" fill="#C7E5F2"/>
<path d="M40.913 63H39.087C37.913 63 37 61.6875 37 60C37 58.3125 37.913 57 39.087 57H40.913C42.087 57 43 58.3125 43 60C42.8696 61.6875 41.9565 63 40.913 63Z" fill="#C7E5F2"/>
<path d="M40.913 63H39.087C37.913 63 37 61.6875 37 60C37 58.3125 37.913 57 39.087 57H40.913C42.087 57 43 58.3125 43 60C42.8696 61.6875 41.9565 63 40.913 63Z" fill="#C7E5F2"/>
<path d="M40.913 72H39.087C37.913 72 37 70.6875 37 69C37 67.3125 37.913 66 39.087 66H40.913C42.087 66 43 67.3125 43 69C42.8696 70.6875 41.9565 72 40.913 72Z" fill="#C7E5F2"/>
<path d="M40.913 72H39.087C37.913 72 37 70.6875 37 69C37 67.3125 37.913 66 39.087 66H40.913C42.087 66 43 67.3125 43 69C42.8696 70.6875 41.9565 72 40.913 72Z" fill="#C7E5F2"/>
<path d="M40.913 72H39.087C37.913 72 37 70.6875 37 69C37 67.3125 37.913 66 39.087 66H40.913C42.087 66 43 67.3125 43 69C42.8696 70.6875 41.9565 72 40.913 72Z" fill="#C7E5F2"/>
<path d="M40.913 72H39.087C37.913 72 37 70.6875 37 69C37 67.3125 37.913 66 39.087 66H40.913C42.087 66 43 67.3125 43 69C42.8696 70.6875 41.9565 72 40.913 72Z" fill="#C7E5F2"/>
<path d="M40.913 72H39.087C37.913 72 37 70.6875 37 69C37 67.3125 37.913 66 39.087 66H40.913C42.087 66 43 67.3125 43 69C42.8696 70.6875 41.9565 72 40.913 72Z" fill="#C7E5F2"/>
<path d="M40.913 72H39.087C37.913 72 37 70.6875 37 69C37 67.3125 37.913 66 39.087 66H40.913C42.087 66 43 67.3125 43 69C42.8696 70.6875 41.9565 72 40.913 72Z" fill="#C7E5F2"/>
<path d="M40.913 72H39.087C37.913 72 37 70.6875 37 69C37 67.3125 37.913 66 39.087 66H40.913C42.087 66 43 67.3125 43 69C42.8696 70.6875 41.9565 72 40.913 72Z" fill="#C7E5F2"/>
<path d="M40.913 72H39.087C37.913 72 37 70.6875 37 69C37 67.3125 37.913 66 39.087 66H40.913C42.087 66 43 67.3125 43 69C42.8696 70.6875 41.9565 72 40.913 72Z" fill="#C7E5F2"/>
<path d="M62.405 61H46.595C46.255 61 46 60.5714 46 60C46 59.4286 46.255 59 46.595 59H62.405C62.745 59 63 59.4286 63 60C63 60.5714 62.745 61 62.405 61Z" fill="#C7E5F2"/>
<path d="M76.4266 55.1346L78.0148 58.9038L82.6472 56.8846L81.1913 53.1153L78.6766 50.1538L76.1619 51.3653L76.4266 55.1346Z" fill="#FCCB56"/>
<path d="M90.8529 82.5961L90.4559 82.7308C89.2647 83.2692 87.9412 82.7308 87.4118 81.5192V81.3846C86.8823 80.1731 87.4118 78.8269 88.6029 78.2884L89 78.1538C90.1912 77.6154 91.5147 78.1538 92.0441 79.3654V79.5C92.5735 80.7115 92.0441 82.0577 90.8529 82.5961Z" fill="#A982ED"/>
<path d="M78.4118 56.2115L76.4265 55.1346L87.0148 80.7115L88.3383 80.1731L78.4118 56.2115Z" fill="#FCCA53"/>
<path d="M78.8089 54.1923L78.4119 56.2115L88.3383 80.173L89.3971 79.6346L90.456 79.2307L80.5295 55.2692L78.8089 54.1923Z" fill="#FBBD33"/>
<path d="M81.1912 53.1154L80.5294 55.2692L90.4559 79.2308L91.7794 78.6923L81.1912 53.1154Z" fill="#FCCA53"/>
<path d="M91.9118 78.2884L91.1177 76.4038L85.8236 78.6923L86.6177 80.5769L86.8824 81.25L92.3089 78.9615L91.9118 78.2884Z" fill="#E3F4F7"/>
<path d="M76.1618 51.3653L78.6765 50.1538L75.7648 46.6538L76.1618 51.3653Z" fill="#2F3033"/>
<path d="M36 41.8333L38.4595 44L43 40" stroke="black" stroke-width="2"/>
<path d="M36 49.8333L38.4595 52L43 48" stroke="black" stroke-width="2"/>
</svg>

<svg width="100" height="100" fill="none" xmlns="http://www.w3.org/2000/svg"><path fill="#fff" d="M0 0H100V100H0z"/><path d="M24.446 81.825c12.725 1.115 21.473-3.347 33.006-6.136 12.195-3.067 26.245.14 34.198-10.178 10.605-13.944-5.965-36.114-21.871-41.97-14.846-5.439-54.347 4.322-62.433 16.732-6.097 9.481 1.326 13.525 3.844 22.449 1.591 6.135 1.856 17.987 13.256 19.103z" fill="#F4FAFC"/><path d="M28 27.485v53.03c0 .742.58 1.485 1.452 1.485h41.096c.726 0 1.452-.594 1.452-1.485v-53.03c0-.742-.58-1.485-1.452-1.485H29.307C28.58 26 28 26.743 28 27.485z" fill="#A982ED"/><path d="M69 30H32v48h37V30z" fill="#FAFDFC"/><path d="M56.43 25.87H43.586c-3.066 0-5.693 2.523-5.693 5.79h24.232c0-3.118-2.628-5.79-5.693-5.79z" fill="#5968E2"/><path d="M49.862 18c-2.19 0-4.087 1.93-4.087 4.157v5.94h8.174v-5.94c0-2.227-1.751-4.157-4.087-4.157zm.146 5.642c-.876 0-1.46-.742-1.46-1.485 0-.89.73-1.485 1.46-1.485.876 0 1.46.743 1.46 1.485 0 .891-.73 1.485-1.46 1.485z" fill="#5968E2"/><path d="M62.405 43h-15.81c-.34 0-.595-.429-.595-1s.255-1 .595-1h15.81c.34 0 .595.429.595 1s-.255 1-.595 1zm0 27h-15.81c-.34 0-.595-.429-.595-1s.255-1 .595-1h15.81c.34 0 .595.429.595 1s-.255 1-.595 1zm0-18h-15.81c-.34 0-.595-.429-.595-1s.255-1 .595-1h15.81c.34 0 .595.429.595 1s-.255 1-.595 1zM40.913 63h-1.826C37.913 63 37 61.687 37 60c0-1.688.913-3 2.087-3h1.826C42.087 57 43 58.313 43 60c-.13 1.688-1.044 3-2.087 3z" fill="#C7E5F2"/><path d="M40.913 63h-1.826C37.913 63 37 61.687 37 60c0-1.688.913-3 2.087-3h1.826C42.087 57 43 58.313 43 60c-.13 1.688-1.044 3-2.087 3z" fill="#C7E5F2"/><path d="M40.913 63h-1.826C37.913 63 37 61.687 37 60c0-1.688.913-3 2.087-3h1.826C42.087 57 43 58.313 43 60c-.13 1.688-1.044 3-2.087 3z" fill="#C7E5F2"/><path d="M40.913 63h-1.826C37.913 63 37 61.687 37 60c0-1.688.913-3 2.087-3h1.826C42.087 57 43 58.313 43 60c-.13 1.688-1.044 3-2.087 3z" fill="#C7E5F2"/><path d="M40.913 63h-1.826C37.913 63 37 61.687 37 60c0-1.688.913-3 2.087-3h1.826C42.087 57 43 58.313 43 60c-.13 1.688-1.044 3-2.087 3z" fill="#C7E5F2"/><path d="M40.913 63h-1.826C37.913 63 37 61.687 37 60c0-1.688.913-3 2.087-3h1.826C42.087 57 43 58.313 43 60c-.13 1.688-1.044 3-2.087 3z" fill="#C7E5F2"/><path d="M40.913 63h-1.826C37.913 63 37 61.687 37 60c0-1.688.913-3 2.087-3h1.826C42.087 57 43 58.313 43 60c-.13 1.688-1.044 3-2.087 3z" fill="#C7E5F2"/><path d="M40.913 63h-1.826C37.913 63 37 61.687 37 60c0-1.688.913-3 2.087-3h1.826C42.087 57 43 58.313 43 60c-.13 1.688-1.044 3-2.087 3zm0 9h-1.826C37.913 72 37 70.687 37 69c0-1.688.913-3 2.087-3h1.826C42.087 66 43 67.313 43 69c-.13 1.688-1.044 3-2.087 3z" fill="#C7E5F2"/><path d="M40.913 72h-1.826C37.913 72 37 70.687 37 69c0-1.688.913-3 2.087-3h1.826C42.087 66 43 67.313 43 69c-.13 1.688-1.044 3-2.087 3z" fill="#C7E5F2"/><path d="M40.913 72h-1.826C37.913 72 37 70.687 37 69c0-1.688.913-3 2.087-3h1.826C42.087 66 43 67.313 43 69c-.13 1.688-1.044 3-2.087 3z" fill="#C7E5F2"/><path d="M40.913 72h-1.826C37.913 72 37 70.687 37 69c0-1.688.913-3 2.087-3h1.826C42.087 66 43 67.313 43 69c-.13 1.688-1.044 3-2.087 3z" fill="#C7E5F2"/><path d="M40.913 72h-1.826C37.913 72 37 70.687 37 69c0-1.688.913-3 2.087-3h1.826C42.087 66 43 67.313 43 69c-.13 1.688-1.044 3-2.087 3z" fill="#C7E5F2"/><path d="M40.913 72h-1.826C37.913 72 37 70.687 37 69c0-1.688.913-3 2.087-3h1.826C42.087 66 43 67.313 43 69c-.13 1.688-1.044 3-2.087 3z" fill="#C7E5F2"/><path d="M40.913 72h-1.826C37.913 72 37 70.687 37 69c0-1.688.913-3 2.087-3h1.826C42.087 66 43 67.313 43 69c-.13 1.688-1.044 3-2.087 3z" fill="#C7E5F2"/><path d="M40.913 72h-1.826C37.913 72 37 70.687 37 69c0-1.688.913-3 2.087-3h1.826C42.087 66 43 67.313 43 69c-.13 1.688-1.044 3-2.087 3zm21.492-11h-15.81c-.34 0-.595-.429-.595-1s.255-1 .595-1h15.81c.34 0 .595.429.595 1s-.255 1-.595 1z" fill="#C7E5F2"/><path d="M76.427 55.135l1.588 3.769 4.632-2.02-1.456-3.769-2.514-2.961-2.515 1.211.265 3.77z" fill="#FCCB56"/><path d="M90.853 82.596l-.397.135c-1.191.538-2.515 0-3.044-1.212v-.134a2.332 2.332 0 0 1 1.19-3.097l.398-.134c1.191-.539 2.515 0 3.044 1.211v.135c.53 1.212 0 2.558-1.191 3.096z" fill="#A982ED"/><path d="M78.412 56.212l-1.986-1.077 10.589 25.577 1.323-.539-9.926-23.962z" fill="#FCCA53"/><path d="M78.809 54.192l-.397 2.02 9.926 23.961 1.06-.538 1.058-.404-9.927-23.962-1.72-1.077z" fill="#FBBD33"/><path d="M81.191 53.115l-.662 2.154 9.927 23.962 1.323-.539-10.588-25.577z" fill="#FCCA53"/><path d="M91.912 78.288l-.794-1.884-5.294 2.288.794 1.885.264.673 5.427-2.288-.397-.674z" fill="#E3F4F7"/><path d="M76.162 51.365l2.514-1.211-2.911-3.5.397 4.711z" fill="#2F3033"/><path d="M36 41.833L38.46 44 43 40m-7 9.833L38.46 52 43 48" stroke="#000" stroke-width="2"/></svg>
